X:1
T:Greatorex, 77.77.77
T:Greatorex, 77.77.77
T:Chester G. Allen (1838-1878)
T:Public Domain Courtesy of the Cyber Hymnal™
C:Chester G. Allen (1838-1878)
Z:Public Domain
Z:Courtesy of the Cyber Hymnal™
%%score ( 1 2 ) ( 3 4 )
L:1/8
Q:1/4=112
M:9/8
K:A
V:1 treble 
V:2 treble 
V:3 bass 
V:4 bass 
V:1
 ([CE][DF])[CE] | [Ec]3 [EA]3 (BA)[DF] | E6 ([CA][Ec])[=Ge] | [Fd]3 [FB]3 (AB)[EG] | %4
 [EA]6 (Bc)[Ed] | [Ec]3 [EA]3 (ed)[Ec] | [EB]6 (BA)[EB] | [Ec]3 [Ec]3 ([^DB][FA])[DF] | %8
 E6 ([CE][DF])[CE] | [Ec]3 [EA]3 (BA)[DF] | E6 ([CA][Ec])[=Ge] | [Fd]3 [FB]3 (AB)[EG] | [EA]6 |] %13
V:2
 x3 | x6 F2 x | E6 x3 | x6 E2 x | x6 E2 x | x6 E2 x | x6 E2 x | x9 | E6 x3 | x6 F2 x | E6 x3 | %11
 x6 E2 x | x6 |] %13
V:3
 A,2 A, | A,3 [A,,C]3 [D,D]2 [D,D] | [A,,C]6 [A,,A,]2 [C,A,] | [D,B,]3 [D,D]3 (CD)[E,B,] | %4
 [A,,C]6 (G,A,)[E,B,] | [E,A,]3 [E,C]3 (CB,)[E,A,] | [E,G,]6 (G,F,)[E,G,] | %7
 A,3 [A,,A,]3 (F,B,)[B,,A,] | [E,G,]6 A,2 A, | A,3 [A,,C]3 [D,D]2 [D,D] | [A,,C]6 [A,,A,]2 [C,A,] | %11
 [D,A,]3 [D,D]3 (CD)[E,B,] | [A,,C]6 |] %13
V:4
 A,2 A, | A,3 x6 | x9 | x6 E,2 x | x6 E,2 x | x6 E,2 x | x6 E,2 x | A,3 B,,2 x4 | x6 A,2 A, | %9
 A,3 x6 | x9 | x6 E,2 x | x6 |] %13

